icons/svg/money/money_lender.svg

<?xml version="1.0" encoding="UTF-8" standalone="no"?>
<!-- Created with Inkscape (http://www.inkscape.org/) -->

<svg
   xmlns:dc="http://purl.org/dc/elements/1.1/"
   xmlns:cc="http://creativecommons.org/ns#"
   xmlns:rdf="http://www.w3.org/1999/02/22-rdf-syntax-ns#"
   xmlns:svg="http://www.w3.org/2000/svg"
   xmlns="http://www.w3.org/2000/svg"
   xmlns:sodipodi="http://sodipodi.sourceforge.net/DTD/sodipodi-0.dtd"
   xmlns:inkscape="http://www.inkscape.org/namespaces/inkscape"
   version="1.0"
   width="580"
   height="580"
   id="svg2"
   sodipodi:version="0.32"
   inkscape:version="0.91 r13725"
   sodipodi:docname="money_lender.svg"
   inkscape:output_extension="org.inkscape.output.svg.inkscape">
  <metadata
     id="metadata2975">
    <rdf:RDF>
      <cc:Work
         rdf:about="">
        <dc:format>image/svg+xml</dc:format>
        <dc:type
           rdf:resource="http://purl.org/dc/dcmitype/StillImage" />
        <cc:license
           rdf:resource="http://web.resource.org/cc/PublicDomain" />
        <dc:language>en</dc:language>
        <dc:title />
      </cc:Work>
    </rdf:RDF>
  </metadata>
  <sodipodi:namedview
     inkscape:window-height="1006"
     inkscape:window-width="1920"
     inkscape:pageshadow="2"
     inkscape:pageopacity="0.0"
     guidetolerance="10.0"
     gridtolerance="10.0"
     objecttolerance="10.0"
     borderopacity="1.0"
     bordercolor="#666666"
     pagecolor="#ffffff"
     id="base"
     inkscape:zoom="0.46083857"
     inkscape:cx="-86.121443"
     inkscape:cy="401.56035"
     inkscape:window-x="1920"
     inkscape:window-y="0"
     inkscape:current-layer="svg2"
     showgrid="false"
     inkscape:window-maximized="1" />
  <defs
     id="defs4">
    <inkscape:perspective
       sodipodi:type="inkscape:persp3d"
       inkscape:vp_x="0 : 290 : 1"
       inkscape:vp_y="0 : 1000 : 0"
       inkscape:vp_z="580 : 290 : 1"
       inkscape:persp3d-origin="290 : 193.33333 : 1"
       id="perspective2441" />
  </defs>
  <g
     id="g1327">
    <path
       d="M 66.275,1.768 C 24.94,1.768 1.704,23.139 1.704,66.804 L 1.704,516.927 C 1.704,557.771 22.599,579.156 63.896,579.156 L 515.92,579.156 C 557.227,579.156 578.149,558.841 578.149,516.927 L 578.149,66.804 C 578.149,24.203 557.227,1.768 514.628,1.768 C 514.624,1.768 66.133,1.625 66.275,1.768 z "
       style="fill:#111;stroke:#eee;stroke-width:3.40799999"
       id="path1329" />
  </g>
  <g
     id="g4372"
     transform="translate(-130.0802,122.26983)" />
  <g
     id="g5004"
     transform="matrix(0.88441573,0,0,0.66515747,-112.73743,175.29463)" />
  <path
     inkscape:connector-curvature="0"
     id="path4152"
     style="font-style:normal;font-variant:normal;font-weight:bold;font-stretch:normal;font-size:medium;line-height:125%;font-family:Roboto;-inkscape-font-specification:'Roboto Bold';letter-spacing:0px;word-spacing:0px;fill:#ffffff;fill-opacity:1;stroke:none;stroke-width:1px;stroke-linecap:butt;stroke-linejoin:miter;stroke-opacity:1"
     d="m 400.31467,249.61235 q 0,-14.12981 -10.3714,-22.40093 -10.1459,-8.44343 -34.72154,-15.50836 -24.57567,-7.06488 -42.38737,-13.95749 -17.81171,-7.06491 -30.66322,-16.02529 -12.62601,-9.13267 -19.84088,-21.36702 -6.98941,-12.23435 -6.98941,-29.12123 0,-29.12122 24.3502,-47.7312 24.35017,-18.610012 64.70838,-21.711677 l 0,-36.875395 36.07437,0 0,37.392347 q 39.90724,4.307865 62.45371,25.502595 22.54648,21.02241 22.54648,54.6238 l -65.15932,0 q 0,-20.6778 -11.27324,-30.84436 -11.04776,-10.3389 -29.76134,-10.3389 -18.48809,0 -28.63403,8.09881 -10.14591,7.92649 -10.14591,22.0563 0,13.09592 9.92047,21.02243 9.92042,7.92647 36.75073,16.19756 27.05576,8.27114 44.41657,15.68067 17.3608,7.23723 29.31041,16.54223 11.94966,9.13268 18.26265,21.02242 6.31301,11.71741 6.31301,27.39807 0,29.29353 -23.89926,47.5589 -23.89926,18.26539 -65.83572,21.53937 l 0,34.29063 -35.8489,0 0,-34.11833 q -46.22029,-3.79094 -71.69778,-24.98565 -25.25206,-21.36706 -25.25206,-56.69159 l 65.15931,0 q 0,20.50548 12.62603,31.53361 12.85151,10.85584 36.75076,10.85584 19.84091,0 31.3396,-7.92648 11.4987,-8.09882 11.4987,-21.71168 z" />
  <g
     id="Layer_4"
     transform="matrix(0.93635804,0,0,0.93635804,30.99127,155.21658)">
    <path
       style="fill:#ffffff"
       inkscape:connector-curvature="0"
       d="M 146.949,350.996 281.297,412.9 c 0,0 15.805,9.22 42.147,0 l 217.323,-86.93 c 0,0 31.173,-19.611 -8.341,-38.05 l -158.933,32.782 -69.807,-17.123 105.37,-6.586 c 0,0 34.244,-25.025 1.316,-48.732 l -110.637,0 c 0,0 -48.733,-27.66 -119.858,-14.489 l -172.542,-9.22 0,148.833 139.614,-22.389 z"
       id="path24" />
  </g>
</svg>

<svg width="580" height="580" viewBox="0 0 580 580" fill="none" xmlns="http://www.w3.org/2000/svg">
<g clip-path="url(#clip0)">
<path d="M66.2751 1.76799C24.9401 1.76799 1.7041 23.139 1.7041 66.804V516.927C1.7041 557.771 22.5991 579.156 63.8961 579.156H515.92C557.227 579.156 578.149 558.841 578.149 516.927V66.804C578.149 24.203 557.227 1.76799 514.628 1.76799C514.624 1.76799 66.1331 1.62499 66.2751 1.76799Z" fill="#111111" stroke="#EEEEEE" stroke-width="3.408"/>
<path d="M400.315 249.612C400.315 240.192 396.858 232.726 389.943 227.211C383.179 221.582 371.606 216.413 355.222 211.703C338.838 206.993 324.709 202.341 312.835 197.746C300.96 193.036 290.739 187.694 282.171 181.72C273.754 175.632 267.14 168.509 262.33 160.353C257.671 152.197 255.341 142.49 255.341 131.232C255.341 111.818 263.458 95.9075 279.691 83.5008C295.925 71.0942 317.494 63.8569 344.4 61.7892V24.9138H380.474V62.3061C407.079 65.178 427.897 73.6789 442.928 87.8087C457.959 101.824 465.474 120.032 465.474 142.432H400.315C400.315 128.647 396.557 118.366 389.042 111.588C381.676 104.696 371.756 101.249 359.28 101.249C346.955 101.249 337.41 103.949 330.646 109.348C323.882 114.632 320.5 121.984 320.5 131.404C320.5 140.135 323.807 147.142 330.421 152.427C337.034 157.711 349.285 163.11 367.172 168.624C385.209 174.138 400.014 179.365 411.588 184.305C423.162 189.13 432.932 194.644 440.898 200.847C448.865 206.936 454.952 213.943 459.161 221.87C463.37 229.681 465.474 238.814 465.474 249.268C465.474 268.797 457.508 284.65 441.575 296.827C425.642 309.004 403.697 316.183 375.739 318.366V352.657H339.89V318.538C309.077 316.011 285.177 307.682 268.192 293.553C251.358 279.308 242.94 260.411 242.94 236.861H308.1C308.1 250.531 312.308 261.043 320.726 268.395C329.293 275.632 341.544 279.251 357.477 279.251C370.704 279.251 381.15 276.608 388.816 271.324C396.482 265.925 400.315 258.688 400.315 249.612V249.612Z" fill="white"/>
<path d="M168.588 483.875L294.386 541.839C294.386 541.839 309.185 550.472 333.851 541.839L537.343 460.441C537.343 460.441 566.532 442.078 529.533 424.813L380.714 455.508L315.35 439.475L414.014 433.308C414.014 433.308 446.079 409.876 415.246 387.678H311.65C311.65 387.678 266.019 361.778 199.42 374.111L37.8594 365.478V504.839L168.588 483.875V483.875Z" fill="white"/>
</g>
<defs>
<clipPath id="clip0">
<path d="M0 0H580V580H0V0Z" fill="white"/>
</clipPath>
</defs>
</svg>
